X:1
T:Title
L:1/8
Q:1/4=100
M:4/4
K:Bb
V:1 treble nm="Grand Piano"
V:1
 D2 DD FGGF | F G2 F G4 | D2 DE F2 FE | EDEF D4 | D2 DD FGGF | F G2 F G4 | D2 DE F2 FE | EDEF D4 | %8
w: ????~????? * * * * * *||||||||
 A2 A2 d2 dc | cBBA A2 G2 | z G2 G c2 cB | ABAG A4 | BABA BABA | B3 A GFED | DDDE F2 FF | EDEF D4 | %16
w: ||||||||
 DDDE F2 FF | EDEF D4 |] %18
w: ||

